!!!!SEGMENT: Wil3035-Quant_le_joly_Robinet.krn
!!!id: Wil3035
!!!AGN: Chanson
!!!SCT: Bernstein (1984)
!!!voices: 3
!!!COM: Adrian Willaert
!!!OTL: Quant le joly Robinet
**kern	**kern	**kern
*part3	*part2	*part1
*staff3	*staff2	*staff1
*I"Bassus	*I"Tenor	*I"Superius
*I'B	*I'T	*I'S
*clefGv2	*clefG2	*clefG2
*k[b-]	*k[b-]	*k[b-]
*F:	*F:	*F:
*M2/1	*M2/1	*M2/1
*met(C|)	*met(C|)	*met(C|)
=1	=1	=1
1d	0r	2r
.	.	2dd
1B-y	.	2dd
.	.	[2ff
=2	=2	=2
1d	0r	2ff]
.	.	4ee
.	.	4dd
1f	.	2cc
.	.	[2ff
=3	=3	=3
1f	0r	4ff]
.	.	4ee
.	.	1dd
1e	.	.
.	.	2cc#i
=4	=4	=4
0d	1a	1dd
.	1f	2r
.	.	2dd
=5	=5	=5
2r	1a	2cc
2d	.	2ff
1c	1cc	4ee
.	.	4dd
.	.	4cc
.	.	4b-y
=6	=6	=6
1f	1cc	4a
.	.	4f
.	.	2ff
1g	1b-y	2dd
.	.	2ee
=7	=7	=7
1d	1a	2.ff
.	.	4ee
1f	2r	2dd
.	2a	[2cc
=8	=8	=8
2.e-X	1g	4cc]
.	.	4b-y
.	.	1b-y
4d	.	.
1c	1cc	.
.	.	2a
=9	=9	=9
1B-y	1dd	2.b-y
.	.	4a
2r	2.a	1f
2d	.	.
.	4b-y	.
=10	=10	=10
2c	2cc	2r
2f	2cc	2a
1g	2.b-y	2g
.	.	[2dd
.	8aL	.
.	8gJ	.
=11	=11	=11
2d	1a	2dd]
2f	.	2cc
2e	1g	4cc
.	.	4dd
2c	.	4ee
.	.	4ff
=12	=12	=12
1d	1b-y	4dd
.	.	4cc
.	.	1ff
[1c	2.a	.
.	.	4ee
.	8gL	4dd
.	8fJ	.
=13	=13	=13
1c]	1g	1ee
1r	[1f	[1ff
=14	=14	=14
1d	0f_	1ff]
1B-y	.	2r
.	.	2b-y
=15	=15	=15
1d	1f]	2a
.	.	2dd
1f	1r	4cc
.	.	4b-y
.	.	4a
.	.	4g
=16	=16	=16
1f	0r	4a
.	.	4d
.	.	1dd
1e	.	.
.	.	2cc#i
=17	=17	=17
0d	1a	1dd
.	1f	2r
.	.	2dd
=18	=18	=18
2r	1a	2cc
2d	.	2ff
1c	1cc	4ee
.	.	4dd
.	.	4cc
.	.	4b-y
=19	=19	=19
1f	1cc	4a
.	.	4f
.	.	2ff
1g	1b-y	2dd
.	.	2ee
=20	=20	=20
1d	1a	2.ff
.	.	4ee
1f	2r	2dd
.	2a	[2cc
=21	=21	=21
2.e	1g	4cc]
.	.	4b-y
.	.	1b-y
4d	.	.
1c	1cc	.
.	.	2a
=22	=22	=22
1B-y	1dd	2.b-y
.	.	4a
2r	2.a	1f
2d	.	.
.	4b-y	.
=23	=23	=23
2c	2cc	2r
2f	2cc	2a
1g	2.b-y	2g
.	.	[2dd
.	8aL	.
.	8gJ	.
=24	=24	=24
2d	1a	2dd]
2f	.	2cc
2e	1g	4cc
.	.	4dd
2c	.	4ee
.	.	4ff
=25	=25	=25
1d	1b-y	4dd
.	.	4cc
.	.	1ff
[1c	2.a	.
.	.	4ee
.	8gL	4dd
.	8fJ	.
=26	=26	=26
1c]	1g	1ee
1r	[1f	1ff
=27	=27	=27
1r	1f]	2r
.	.	1cc
[1f	1r	.
.	.	2cc
=28	=28	=28
2f]	2ff	2cc
2f	2ff	2cc
2f	2ff	2dd
2f	2ff	2cc
=29	=29	=29
2g	2dd	2b-y
2g	2dd	2b-y
1a	2cc	2.cc
.	2cc	.
.	.	4cc
=30	=30	=30
1a	2f	2cc
.	2f	2cc
2.B-y	2f	2dd
.	2f	[2b-y
4B-y	.	.
=31	=31	=31
2B-y	1b-y	4b-]
.	.	4a
2B-y	.	1g
2c	1a	.
2d	.	2f
=32	=32	=32
1G	1g	1b-y
[1d	1r	2.a
.	.	4a
=33	=33	=33
2d]	2f	2a
2d	2f	2a
2d	2f	2b-y
2d	2f	2b-y
=34	=34	=34
2f	1cc	2.a
2f	.	.
.	.	8gL
.	.	8fJ
2.e	1ee	2g
.	.	[2cc
8dL	.	.
8cJ	.	.
=35	=35	=35
1d	1ff	2cc]
.	.	2bnXi
1c	2.ee	1cc
.	8ddL	.
.	8ccJ	.
=36	=36	=36
1G	1dd	2r
.	.	1b-y
1r	1cc	.
.	.	2a
=37	=37	=37
2r	1dd	2g
2d	.	2a
2d	1a	2r
2c	.	2a
=38	=38	=38
2A	1cc	2a
2.c	.	2g
.	1g	2e
4B-y	.	.
[2G	.	[2g
=39	=39	=39
4G]	1b-y	4g]
4A	.	4f
2B-y	.	2.d
2F	2.a	.
.	.	4e
2f	.	2f
.	8gL	.
.	8fJ	.
=40	=40	=40
2e	2g	2c
4d	2g	2.cc
4c	.	.
1d	1f	.
.	.	8bnXiL
.	.	8aJ
.	.	2bni
=41	=41	=41
1c	0r	2r
.	.	2cc
2r	.	2cc
2e-X	.	2b-y
=42	=42	=42
2e-i	1r	2g
2d	.	2b-y
2B-y	1dd	2b-y
2d	.	2a
=43	=43	=43
2d	1a	2f
2c	.	2.cc
2A	1cc	.
.	.	4b-y
[2c	.	[2g
=44	=44	=44
4c]	1g	4g]
4B-y	.	4a
2.G	.	2.b-y
.	1b-y	.
4A	.	4cc
2B-y	.	2dd
=45	=45	=45
2c	2.a	2cc
2d	.	1ff
.	8gL	.
.	8fJ	.
1c	2g	.
.	2g	2ee
=46	=46	=46
00Fl	00fl	00ffl
==	==	==
*-	*-	*-
!!!system-decoration: [*]
!!!RDF**kern: i = editorial accidental
!!!RDF**kern: l = terminal long
!!!ENC: Benjamin Ory
!!!END: 2023/10/12
!!!EED: Benjamin Ory
!!!EEV: 2023/10/12
!!!YEC: Copyright 2023 Benjamin Ory, All Rights Reserved
!!!ONB: Translated from MusicXML on 2023/10/12
